X: 10372
Q: "Allegro."
M: 6/8
L: 1/8
K: A
e2e |\
(e2a) c2c | (c2e) A2A | (BG)B (ed)B | c2A e2e |\
(e2a) c2c | c2e A2A | B2G (ed)B | "^Fin."A3 H:|\
c2c |\
f2c g2c | aga f2c' | g2g b2b | a2f c2c |\
f2c g2c | aga f2c' | g2g bga | "^D.C."f3 |]


